packages/ffe-icons/icons/open/400/sm/mfg_nest_yale_lock.svg

<svg xmlns="http://www.w3.org/2000/svg" height="20" viewBox="0 -960 960 960" width="20"><path d="M480.222-48Q370-48 293-124.843 216-201.686 216-312v-336q0-110.314 76.778-187.157Q369.557-912 479.778-912 590-912 667-835.157 744-758.314 744-648v336q0 110.314-76.778 187.157Q590.443-48 480.222-48Zm.004-72Q560-120 616-176.16T672-312v-336q0-79.68-56.226-135.84t-136-56.16Q400-840 344-783.84T288-648v336q0 79.68 56.226 135.84t136 56.16ZM480-636q25 0 42.5-17.5T540-696q0-25-17.5-42.5T480-756q-25 0-42.5 17.5T420-696q0 25 17.5 42.5T480-636ZM371.789-480Q387-480 397.5-490.289q10.5-10.29 10.5-25.5Q408-531 397.711-541.5q-10.29-10.5-25.5-10.5Q357-552 346.5-541.711q-10.5 10.29-10.5 25.5Q336-501 346.289-490.5q10.29 10.5 25.5 10.5Zm108 0Q495-480 505.5-490.289q10.5-10.29 10.5-25.5Q516-531 505.711-541.5q-10.29-10.5-25.5-10.5Q465-552 454.5-541.711q-10.5 10.29-10.5 25.5Q444-501 454.289-490.5q10.29 10.5 25.5 10.5Zm108 0Q603-480 613.5-490.289q10.5-10.29 10.5-25.5Q624-531 613.711-541.5q-10.29-10.5-25.5-10.5Q573-552 562.5-541.711q-10.5 10.29-10.5 25.5Q552-501 562.289-490.5q10.29 10.5 25.5 10.5Zm-216 120Q387-360 397.5-370.289q10.5-10.29 10.5-25.5Q408-411 397.711-421.5q-10.29-10.5-25.5-10.5Q357-432 346.5-421.711q-10.5 10.29-10.5 25.5Q336-381 346.289-370.5q10.29 10.5 25.5 10.5Zm216 0Q603-360 613.5-370.289q10.5-10.29 10.5-25.5Q624-411 613.711-421.5q-10.29-10.5-25.5-10.5Q573-432 562.5-421.711q-10.5 10.29-10.5 25.5Q552-381 562.289-370.5q10.29 10.5 25.5 10.5Zm-108 0Q495-360 505.5-370.289q10.5-10.29 10.5-25.5Q516-411 505.711-421.5q-10.29-10.5-25.5-10.5Q465-432 454.5-421.711q-10.5 10.29-10.5 25.5Q444-381 454.289-370.5q10.29 10.5 25.5 10.5Zm-108 120Q387-240 397.5-250.289q10.5-10.29 10.5-25.5Q408-291 397.711-301.5q-10.29-10.5-25.5-10.5Q357-312 346.5-301.711q-10.5 10.29-10.5 25.5Q336-261 346.289-250.5q10.29 10.5 25.5 10.5Zm216 0Q603-240 613.5-250.289q10.5-10.29 10.5-25.5Q624-291 613.711-301.5q-10.29-10.5-25.5-10.5Q573-312 562.5-301.711q-10.5 10.29-10.5 25.5Q552-261 562.289-250.5q10.29 10.5 25.5 10.5Zm-108 0Q495-240 505.5-250.289q10.5-10.29 10.5-25.5Q516-291 505.711-301.5q-10.29-10.5-25.5-10.5Q465-312 454.5-301.711q-10.5 10.29-10.5 25.5Q444-261 454.289-250.5q10.29 10.5 25.5 10.5ZM480-480Z"/></svg>

<svg xmlns="http://www.w3.org/2000/svg" height="20" viewBox="0 -960 960 960" width="20"><path d="M480.22-48Q370-48 293-124.84 216-201.69 216-312v-336q0-110.31 76.78-187.16 76.78-76.84 187-76.84T667-835.16q77 76.85 77 187.16v336q0 110.31-76.78 187.16Q590.44-48 480.22-48Zm.01-72Q560-120 616-176.16q56-56.16 56-135.84v-336q0-79.68-56.23-135.84-56.22-56.16-136-56.16Q400-840 344-783.84 288-727.68 288-648v336q0 79.68 56.23 135.84 56.22 56.16 136 56.16ZM480-636q25 0 42.5-17.5T540-696q0-25-17.5-42.5T480-756q-25 0-42.5 17.5T420-696q0 25 17.5 42.5T480-636ZM371.79-480q15.21 0 25.71-10.29t10.5-25.5q0-15.21-10.29-25.71t-25.5-10.5q-15.21 0-25.71 10.29t-10.5 25.5q0 15.21 10.29 25.71t25.5 10.5Zm108 0q15.21 0 25.71-10.29t10.5-25.5q0-15.21-10.29-25.71t-25.5-10.5q-15.21 0-25.71 10.29t-10.5 25.5q0 15.21 10.29 25.71t25.5 10.5Zm108 0q15.21 0 25.71-10.29t10.5-25.5q0-15.21-10.29-25.71t-25.5-10.5q-15.21 0-25.71 10.29t-10.5 25.5q0 15.21 10.29 25.71t25.5 10.5Zm-216 120q15.21 0 25.71-10.29t10.5-25.5q0-15.21-10.29-25.71t-25.5-10.5q-15.21 0-25.71 10.29t-10.5 25.5q0 15.21 10.29 25.71t25.5 10.5Zm216 0q15.21 0 25.71-10.29t10.5-25.5q0-15.21-10.29-25.71t-25.5-10.5q-15.21 0-25.71 10.29t-10.5 25.5q0 15.21 10.29 25.71t25.5 10.5Zm-108 0q15.21 0 25.71-10.29t10.5-25.5q0-15.21-10.29-25.71t-25.5-10.5q-15.21 0-25.71 10.29t-10.5 25.5q0 15.21 10.29 25.71t25.5 10.5Zm-108 120q15.21 0 25.71-10.29t10.5-25.5q0-15.21-10.29-25.71t-25.5-10.5q-15.21 0-25.71 10.29t-10.5 25.5q0 15.21 10.29 25.71t25.5 10.5Zm216 0q15.21 0 25.71-10.29t10.5-25.5q0-15.21-10.29-25.71t-25.5-10.5q-15.21 0-25.71 10.29t-10.5 25.5q0 15.21 10.29 25.71t25.5 10.5Zm-108 0q15.21 0 25.71-10.29t10.5-25.5q0-15.21-10.29-25.71t-25.5-10.5q-15.21 0-25.71 10.29t-10.5 25.5q0 15.21 10.29 25.71t25.5 10.5Zm.21-240Z"/></svg>
